web/packages/design/src/ResourceIcon/assets/mariadb-dark.svg

<svg width="72" height="72" viewBox="0 0 72 72" fill="none" xmlns="http://www.w3.org/2000/svg">
<path d="M1.1601 56.7439C5.43168 56.8724 6.59176 56.7605 9.96842 55.2938C12.8396 54.0467 16.6803 50.6866 20.0735 49.6011C25.0535 48.0019 30.3941 48.2422 35.6932 48.8678C37.4664 49.0791 39.248 49.3733 40.5199 49.2365C42.5045 48.0185 42.5998 44.7123 43.8303 44.4471C43.4947 50.8441 40.7519 54.9375 38.0092 58.6498C43.7888 57.6305 47.6503 54.0219 49.987 49.5556C50.6955 48.2008 51.8721 45.9842 52.4107 44.4595C52.8375 45.4705 51.8556 46.1126 52.3154 47.2147C56.036 44.1446 57.7927 40.6478 59.3008 35.5269C61.0492 29.6022 62.8432 24.5103 63.9701 22.7578C65.068 21.0466 66.7791 19.9901 68.3411 18.8963C70.1143 17.6493 71.7012 16.3525 71.9746 13.9784C72.1818 12.18 71.1031 11.4683 69.3934 12.4289C68.4571 12.9551 67.5954 13.0711 66.6217 13.1001C65.7765 13.125 64.8484 13.0877 63.7132 13.2037C54.3373 14.1649 53.9023 23.3295 47.0868 30.058C46.6476 30.4847 45.8977 31.1145 45.4005 31.4874C43.2958 33.0576 41.0419 33.9194 38.6679 34.8267C34.8231 36.2934 31.1771 36.7201 27.5726 37.9879C24.9252 38.916 22.4641 39.9808 20.2889 41.4682C19.7462 41.8411 19.0087 42.504 18.5364 42.8893C17.2603 43.9333 16.4234 45.0893 15.6114 46.2825C14.7745 47.5089 13.9707 48.7725 12.7402 49.9782C10.7473 51.9337 3.30624 50.5499 0.683628 52.3646C0.393608 52.5676 0.157439 52.8079 0 53.098C1.42938 53.7484 2.38644 53.3507 4.03127 53.5288C4.23428 55.0991 0.625634 56.0272 1.1601 56.7439Z" fill="#C0765A"/>
<path fill-rule="evenodd" clip-rule="evenodd" d="M60.5898 17.0815C61.9156 18.2333 64.6998 17.3094 64.2026 15.0182C62.1394 14.8442 60.9462 15.5444 60.5898 17.0815Z" fill="#1F305F"/>
</svg>

<svg xmlns="http://www.w3.org/2000/svg" width="72" height="72" fill="none" viewBox="0 0 72 72"><path fill="#c0765a" d="M1.16 56.744c4.272.128 5.432.017 8.808-1.45 2.872-1.247 6.712-4.607 10.106-5.693 4.98-1.6 10.32-1.359 15.62-.733 1.772.211 3.554.505 4.826.368 1.984-1.217 2.08-4.524 3.31-4.789-.335 6.397-3.078 10.49-5.82 14.203 5.779-1.02 9.64-4.628 11.977-9.094.709-1.355 1.885-3.572 2.424-5.096.426 1.01-.555 1.653-.096 2.755 3.721-3.07 5.478-6.567 6.986-11.688 1.748-5.925 3.542-11.017 4.67-12.77 1.097-1.71 2.808-2.767 4.37-3.86 1.773-1.248 3.36-2.544 3.634-4.919.207-1.798-.872-2.51-2.582-1.55-.936.527-1.798.643-2.771.672-.846.025-1.774-.012-2.909.104-9.376.96-9.81 10.125-16.626 16.854-.44.427-1.19 1.056-1.687 1.43-2.104 1.57-4.358 2.431-6.732 3.339-3.845 1.466-7.49 1.893-11.095 3.16-2.648.929-5.109 1.994-7.284 3.481-.543.373-1.28 1.036-1.753 1.421-1.276 1.044-2.113 2.2-2.925 3.393-.837 1.227-1.64 2.49-2.87 3.696-1.994 1.956-9.435.572-12.057 2.387-.29.203-.527.443-.684.733 1.43.65 2.386.253 4.031.43.203 1.571-3.405 2.5-2.87 3.216"/><path fill="#1f305f" fill-rule="evenodd" d="M60.59 17.082c1.326 1.151 4.11.227 3.613-2.064-2.064-.174-3.257.526-3.613 2.063" clip-rule="evenodd"/></svg>
